assets/gcperrorreporting/original.svg

<svg height="24" width="24" xmlns="http://www.w3.org/2000/svg"><g fill-rule="evenodd"><path d="m7 2-5 5v10l5 5h5l-2.5-2.86h-1.25l-3.39-3.39v-7.5l3.39-3.39h1.25l2.5-2.86z" fill="#669df6"/><path d="m14.5 2-2.5 2.86h3.75l3.39 3.39v7.5l-3.39 3.39h-3.75l2.5 2.86h2.5l5-5v-10l-5-5z" fill="#669df6"/><g fill="#4285f4"><path d="m12 17-2.5-2.5 2.5-2.5-2.5-2.5 2.5-2.5h-2.5l-2.5 2.5v5l2.5 2.5z"/><path d="m14.5 7-2.5 2.5 2.5 2.5-2.5 2.5 2.5 2.5 2.5-2.5v-5z"/></g></g></svg>

<svg xmlns="http://www.w3.org/2000/svg" width="24" height="24"><g data-name="Product Icons"><path id="Fill-1" d="M7 2 2 7v10l5 5h5l-2.5-2.86H8.25l-3.39-3.39v-7.5l3.39-3.39H9.5L12 2z" fill="#669df6" fill-rule="evenodd"/><path id="Fill-2" d="M14.5 2 12 4.86h3.75l3.39 3.39v7.5l-3.39 3.39H12L14.5 22H17l5-5V7l-5-5z" fill="#669df6" fill-rule="evenodd"/><path id="Fill-3" d="m12 17-2.5-2.5L12 12 9.5 9.5 12 7H9.5L7 9.5v5L9.5 17z" fill-rule="evenodd" fill="#4285f4"/><path id="Fill-4" d="M14.5 7 12 9.5l2.5 2.5-2.5 2.5 2.5 2.5 2.5-2.5v-5z" fill-rule="evenodd" fill="#4285f4"/></g></svg>
